X:1
T:James Lee's Favorite -- Jig
R:reel
B:Ryan's Mammoth Collection
N: 118 663
Z: Contributed by Ray Davies,  ray:davies99.freeserve.co.uk
M:2/4
L:1/16
K:A
uE2"^Segno"|\
vABcA EBzuc | defd cezg | aecA dfzd | cABG E2zE |
ABcA EBzc | defd cezg | aecA dfzd | cABG A2 H|]
uE2|\
vAceg a2a2 | gefg e2>g2 | aecA dfzud | cABG E2zuE |
vAceg a2a2 | gefg e2>g2 | aecA dfzud |\
 cABG FAEG "^Segno""_D.S."|]
